X: 415
T: Xuehui changqu jie xinkuan
%%abc-version 2.0
%%abcx-abcm2ps-target-version 5.9.1 (29 Sep 2008)
%%abc-creator hum2abc beta
%%abcx-conversion-date 2013/10/02 07:52:30
%%abc-edited-by Helmut Schaffrath
%%humdrum-veritas 3558145499
%%humdrum-veritas-data 2352291961
%%continueall 1
%%barnumbers 0
L: 1/16
M: 2/4
K: G
d2> g2 d2 B A [I:setbarnb 1]| 
G2> E2 d2 d B | 
A2 D2 G2 B d | 
A8 | 
d2> g2 d2 B A | 
G2> E2 d2 d B | 
A2 D2 G2 F E | 
D8 |]  



